packages/kaspersky-hexa-ui-icons/src/iconsSVGs/16/Hand1.svg

<svg width="16" height="16" viewBox="0 0 16 16" fill="none" xmlns="http://www.w3.org/2000/svg">
<path fill-rule="evenodd" clip-rule="evenodd" d="M13.6501 5.66685V9.33176L13.6501 9.33335V9.66668C13.6501 12.7871 11.1205 15.3167 8.0001 15.3167C4.87969 15.3167 2.3501 12.7871 2.3501 9.66668V7.0001C2.3501 6.08883 3.08883 5.3501 4.0001 5.3501C4.12019 5.3501 4.23729 5.36293 4.3501 5.38729V3.66685C4.3501 2.75558 5.08883 2.01685 6.0001 2.01685C6.12826 2.01685 6.25302 2.03146 6.37278 2.05911C6.50339 1.27836 7.18226 0.68335 8.0001 0.68335C8.81794 0.68335 9.4968 1.27836 9.62741 2.05911C9.74718 2.03146 9.87193 2.01685 10.0001 2.01685C10.9114 2.01685 11.6501 2.75558 11.6501 3.66685V4.05404C11.7629 4.02968 11.88 4.01685 12.0001 4.01685C12.9114 4.01685 13.6501 4.75558 13.6501 5.66685ZM6.0001 3.31685C6.1934 3.31685 6.3501 3.47355 6.3501 3.66685V7.33335C6.3501 7.69233 6.64111 7.98351 7.0001 7.98351C7.35908 7.98351 7.6501 7.6925 7.6501 7.33351V2.33335C7.6501 2.14005 7.8068 1.98335 8.0001 1.98335C8.1934 1.98335 8.3501 2.14005 8.3501 2.33335V7.33335C8.3501 7.69233 8.64111 7.98351 9.0001 7.98351C9.35908 7.98351 9.6501 7.6925 9.6501 7.33351V3.66685C9.6501 3.47355 9.8068 3.31685 10.0001 3.31685C10.1934 3.31685 10.3501 3.47355 10.3501 3.66685V8.00018C10.3501 8.35916 10.6411 8.65018 11.0001 8.65018C11.3591 8.65018 11.6501 8.35916 11.6501 8.00018L11.6501 5.66684C11.6505 5.47393 11.8071 5.31685 12.0001 5.31685C12.1934 5.31685 12.3501 5.47355 12.3501 5.66685V9.66668C12.3501 12.0691 10.4025 14.0167 8.0001 14.0167C5.59766 14.0167 3.6501 12.0691 3.6501 9.66668V7.0001C3.6501 6.8068 3.8068 6.6501 4.0001 6.6501C4.19326 6.6501 4.34987 6.80657 4.3501 6.99968L4.3501 9.33279C4.3501 9.35237 4.35096 9.3724 4.35266 9.39154C4.38205 9.7233 4.6607 9.98343 5.0001 9.98343C5.00108 9.98343 5.00206 9.98343 5.00305 9.98342C5.02879 9.98462 5.1263 10.0007 5.28164 10.0858C5.43401 10.1692 5.60682 10.3004 5.76914 10.4789C6.0915 10.8335 6.3501 11.3487 6.3501 12C6.3501 12.359 6.64111 12.65 7.0001 12.65C7.35908 12.65 7.6501 12.359 7.6501 12C7.6501 10.9847 7.24203 10.1665 6.73106 9.60445C6.47671 9.32466 6.19119 9.10168 5.90605 8.94553C5.82406 8.90063 5.73833 8.85922 5.6501 8.82321V3.66685C5.6501 3.47355 5.8068 3.31685 6.0001 3.31685Z" fill="black"/>
</svg>

<svg xmlns="http://www.w3.org/2000/svg" width="16" height="16" fill="none" viewBox="0 0 16 16"><path fill="#000" fill-rule="evenodd" d="M13.6501 5.6669v3.9998c0 3.1204-2.5296 5.65-5.65 5.65s-5.65-2.5296-5.65-5.65V7c0-.9113.7387-1.65 1.65-1.65.12 0 .2372.0128.35.0372V3.6669c0-.9113.7387-1.65 1.65-1.65.1282 0 .253.0146.3727.0422C6.5034 1.2784 7.1823.6834 8 .6834s1.4967.595 1.6273 1.3757A1.66 1.66 0 0 1 10 2.0168c.9113 0 1.65.7388 1.65 1.65v.3872a1.66 1.66 0 0 1 .35-.0372c.9113 0 1.65.7388 1.65 1.65M6 3.3168a.35.35 0 0 1 .35.35v3.6665a.65.65 0 1 0 1.3.0002V2.3332a.35.35 0 1 1 .7 0v5a.65.65 0 1 0 1.3.0002V3.667a.35.35 0 1 1 .7 0v4.3333a.65.65 0 1 0 1.3 0V5.6668a.3507.3507 0 0 1 .35-.35.35.35 0 0 1 .35.35v3.9999c0 2.4024-1.9476 4.35-4.35 4.35s-4.35-1.9476-4.35-4.35V7a.35.35 0 0 1 .7-.0004v2.333a.65.65 0 0 0 .65.6506l.003.0001c.0257.0012.1232.0173.2785.1024.1524.0834.3252.2146.4875.3931.3224.3546.581.8698.581 1.5211a.65.65 0 1 0 1.3 0c0-1.0153-.408-1.8335-.919-2.3955-.2544-.2798-.54-.5028-.825-.659a2.5 2.5 0 0 0-.256-.1223V3.667a.35.35 0 0 1 .35-.35" clip-rule="evenodd"/></svg>
